Newaita-dark/apps/32/libreoffice-writer.svg

<svg height="32" viewBox="0 0 32 32" width="32" xmlns="http://www.w3.org/2000/svg" xmlns:xlink="http://www.w3.org/1999/xlink"><linearGradient id="a" gradientTransform="matrix(.0744119 0 0 .062506 -2.630336 13.438785)" gradientUnits="userSpaceOnUse" x1="254" x2="254" y1="233.5" y2="254.666672"><stop offset="0" stop-opacity=".27451"/><stop offset="1" stop-opacity="0"/></linearGradient><linearGradient id="b"><stop offset="0" stop-opacity=".313726"/><stop offset=".222222" stop-opacity=".27451"/><stop offset="1" stop-opacity="0"/></linearGradient><radialGradient id="c" cx="450.908936" cy="189.579361" gradientTransform="matrix(.00000017 -.0781325 -.140638 -.0000001 50.476849 63.595333)" gradientUnits="userSpaceOnUse" r="21.166656" xlink:href="#b"/><radialGradient id="d" cx="450.908936" cy="189.579361" gradientTransform="matrix(-.00000017 .0781325 .140638 .0000001 -18.723815 -7.527479)" gradientUnits="userSpaceOnUse" r="21.166656" xlink:href="#b"/><radialGradient id="e" cx="450.908936" cy="189.579361" gradientTransform="matrix(-.00000017 -.0781325 .140638 -.0000001 -18.723815 63.595333)" gradientUnits="userSpaceOnUse" r="21.166656" xlink:href="#b"/><radialGradient id="f" cx="450.908936" cy="189.579361" gradientTransform="matrix(.00000017 .0781325 -.140638 .0000001 50.476847 -7.527479)" gradientUnits="userSpaceOnUse" r="21.166656" xlink:href="#b"/><linearGradient id="g"><stop offset="0" stop-color="#7e57c2"/><stop offset="1" stop-color="#9575cd"/></linearGradient><linearGradient id="h" gradientUnits="userSpaceOnUse" x1="15.87648" x2="15.87648" xlink:href="#g" y1="28.03386419623" y2="2.89610343548"/><linearGradient id="i" gradientUnits="userSpaceOnUse" x1="15.87648" x2="15.87648" y1="26.71082419623" y2="4.21914343548"><stop offset="0" stop-color="#e0e0e0"/><stop offset="1" stop-color="#eee"/></linearGradient><linearGradient id="j" gradientUnits="userSpaceOnUse" x1="15.56646950003" x2="15.56646950003" xlink:href="#g" y1="21.74948999994" y2="7.85753293757"/><path d="m7.609375 28.035156h16.535156v1.320313h-16.535156zm0 0" fill="url(#a)"/><path d="m24.144531 28.035156h2.648438v-1.324218h-2.648438zm0 0" fill="url(#c)"/><path d="m7.609375 28.035156h-2.648437v1.320313h2.648437zm0 0" fill="url(#d)"/><path d="m7.609375 28.035156h-2.648437v-1.324218h2.648437zm0 0" fill="url(#e)"/><path d="m24.144531 28.035156h2.648438v1.320313h-2.648438zm0 0" fill="url(#f)"/><path d="m6.613281 2.894531c-.730469 0-1.320312.589844-1.320312 1.324219v22.492188c0 .734374.589843 1.324218 1.320312 1.324218h18.523438c.734375 0 1.324219-.589844 1.324219-1.324218v-15.054688l-8.761719-8.761719zm13.894531 0 5.953126 5.957031v-4.632812c0-.734375-.589844-1.324219-1.324219-1.324219zm0 0" fill="url(#h)"/><path d="m7.277344 4.21875c-.367188 0-.664063.296875-.664063.660156v21.171875c0 .363281.296875.660157.664063.660157h17.199218c.367188 0 .660157-.296876.660157-.660157v-13.894531l-7.9375-7.9375zm0 0" fill="url(#i)"/><path d="m6.613281 2.894531c-.730469 0-1.320312.589844-1.320312 1.324219v.332031c0-.734375.589843-1.324219 1.320312-1.324219h11.085938l8.761719 8.761719v-.332031l-8.761719-8.761719zm13.894531 0 .332032.332031h4.296875c.734375 0 1.324219.589844 1.324219 1.324219v-.332031c0-.734375-.589844-1.324219-1.324219-1.324219zm0 0" fill="#fff" fill-opacity=".392157"/><path d="m7.277344 4.21875c-.367188 0-.664063.296875-.664063.660156v.496094c0-.363281.296875-.660156.664063-.660156h9.921875l7.9375 7.9375v-.496094l-7.9375-7.9375zm0 0" fill-opacity=".235294"/><path d="m6.613281 26.074219v.3125c0 .367187.296875.660156.664063.660156h17.199218c.367188 0 .660157-.292969.660157-.660156v-.3125c0 .367187-.292969.660156-.660157.660156h-17.199218c-.367188 0-.664063-.292969-.664063-.660156zm0 0" fill="#fff" fill-opacity=".392157"/><path d="m440.036742 255.093763c-22.202605 0-40.153648 17.951043-40.153648 39.91745v1280.192776c0 21.966407 17.951043 39.91745 40.153648 39.91745h1039.979482c22.202605 0 39.91745-17.951043 39.91745-39.91745v-840.156034l-479.954192-479.954192zm0 0" fill="none" stroke="#212121" stroke-linecap="round" stroke-linejoin="round" stroke-width="11.338583" transform="scale(.016538)"/><path d="m20.507812 2.894531 5.953126 5.957031v-.324218l-5.632813-5.632813zm-15.214843 23.492188v.324219c0 .734374.589843 1.324218 1.320312 1.324218h18.523438c.734375 0 1.324219-.589844 1.324219-1.324218v-.324219c0 .734375-.589844 1.324219-1.324219 1.324219h-18.523438c-.730469 0-1.320312-.589844-1.320312-1.324219zm0 0" fill-opacity=".235294"/><path d="m399.883094 175.022665c-44.169013 0-79.8349 35.665888-79.8349 80.071098v1360.027676c0 44.405211 35.665887 80.071098 79.8349 80.071098h1120.05058c44.40521 0 80.071098-35.665887 80.071098-80.071098v-910.306819l-529.791955-529.791955zm840.156034 0 359.965644 360.201842v-280.130744c0-44.40521-35.665888-80.071098-80.071098-80.071098zm0 0" fill="none" stroke="#212121" stroke-linecap="round" stroke-linejoin="round" stroke-width="11.338583" transform="scale(.016538)"/><path d="m10.9375 9.84375c-.367188 0-.664062.292969-.664062.660156 0 .367188.296874.660156.664062.660156h9.921875c.367187 0 .660156-.292968.660156-.660156 0-.367187-.292969-.660156-.660156-.660156zm0 3.304688c-.367188 0-.664062.296874-.664062.664062 0 .363281.296874.660156.664062.660156h9.921875c.367187 0 .660156-.296875.660156-.660156 0-.367188-.292969-.664062-.660156-.664062zm0 3.308593c-.367188 0-.664062.28125-.664062.632813v.058594c0 .351562.296874.632812.664062.632812h9.921875c.367187 0 .660156-.28125.660156-.632812v-.058594c0-.351563-.292969-.632813-.660156-.632813zm0 3.308594c-.367188 0-.664062.292969-.664062.660156 0 .367188.296874.664063.664062.664063h9.921875c.367187 0 .660156-.296875.660156-.664063 0-.367187-.292969-.660156-.660156-.660156zm0 0" fill="url(#j)"/><path d="m10.9375 9.84375c-.367188 0-.664062.292969-.664062.660156 0 .058594.007812.113282.023437.164063.070313-.285157.328125-.496094.640625-.496094h9.921875c.308594 0 .566406.210937.640625.496094.011719-.050781.019531-.105469.019531-.164063 0-.367187-.292969-.660156-.660156-.660156zm0 3.304688c-.367188 0-.664062.296874-.664062.664062 0 .054688.007812.109375.023437.164062.070313-.285156.328125-.496093.640625-.496093h9.921875c.308594 0 .566406.210937.640625.496093.011719-.054687.019531-.109374.019531-.164062 0-.367188-.292969-.664062-.660156-.664062zm0 3.308593c-.367188 0-.664062.28125-.664062.632813v.058594c0 .046874.007812.09375.015624.136718.066407-.285156.328126-.496094.648438-.496094h9.921875c.316406 0 .582031.210938.644531.496094.011719-.042968.015625-.089844.015625-.136718v-.058594c0-.351563-.292969-.632813-.660156-.632813zm0 3.308594c-.367188 0-.664062.292969-.664062.660156 0 .058594.007812.113281.023437.167969.070313-.289062.328125-.5.640625-.5h9.921875c.308594 0 .566406.210938.640625.5.011719-.054688.019531-.109375.019531-.167969 0-.367187-.292969-.660156-.660156-.660156zm0 0" fill="#fff" fill-opacity=".392157"/><path d="m10.320312 10.835938c-.027343.074218-.046874.160156-.046874.246093 0 .367188.296874.660157.664062.660157h9.921875c.367187 0 .660156-.292969.660156-.660157 0-.085937-.015625-.171875-.046875-.246093-.097656.242187-.335937.410156-.613281.410156h-9.921875c-.28125 0-.515625-.167969-.617188-.410156zm0 3.304687c-.027343.078125-.046874.160156-.046874.25 0 .367187.296874.660156.664062.660156h9.921875c.367187 0 .660156-.292969.660156-.660156 0-.089844-.015625-.171875-.046875-.25-.097656.246094-.335937.414063-.613281.414063h-9.921875c-.28125 0-.515625-.167969-.617188-.414063zm-.003906 3.308594c-.027344.066406-.042968.140625-.042968.21875v.058593c0 .351563.296874.632813.664062.632813h9.921875c.367187 0 .660156-.28125.660156-.632813v-.058593c0-.078125-.011719-.152344-.039062-.21875-.09375.242187-.335938.414062-.621094.414062h-9.921875c-.289062 0-.53125-.171875-.621094-.414062zm.003906 3.308593c-.027343.074219-.046874.160157-.046874.246094 0 .367188.296874.664063.664062.664063h9.921875c.367187 0 .660156-.296875.660156-.664063 0-.085937-.015625-.171875-.046875-.246094-.097656.242188-.335937.414063-.613281.414063h-9.921875c-.28125 0-.515625-.171875-.617188-.414063zm0 0" fill-opacity=".235294"/><path d="m174.98329-57.515039c-5.874439 0-10.623986 4.687052-10.623986 10.561491s4.749547 10.561492 10.623986 10.561492h158.734842c5.874439 0 10.561491-4.687053 10.561491-10.561492s-4.687052-10.561491-10.561491-10.561491zm0 52.869951c-5.874439 0-10.623986 4.749547-10.623986 10.623986 0 5.811945 4.749547 10.561491 10.623986 10.561491h158.734842c5.874439 0 10.561491-4.749546 10.561491-10.561491 0-5.874439-4.687052-10.623986-10.561491-10.623986zm0 52.932445c-5.874439 0-10.623986 4.499571-10.623986 10.124034v.93741c0 5.624463 4.749547 10.124033 10.623986 10.124033h158.734842c5.874439 0 10.561491-4.49957 10.561491-10.124033v-.93741c0-5.624463-4.687052-10.124034-10.561491-10.124034zm0 52.932446c-5.874439 0-10.623986 4.687052-10.623986 10.561491s4.749547 10.623985 10.623986 10.623985h158.734842c5.874439 0 10.561491-4.749546 10.561491-10.623985s-4.687052-10.561491-10.561491-10.561491zm0 0" fill="none" stroke="#212121" stroke-linecap="round" stroke-linejoin="round" stroke-width="3" transform="matrix(.062506 0 0 .062506 0 13.438783)"/></svg>

<?xml version="1.0" encoding="UTF-8"?>
<svg xmlns="http://www.w3.org/2000/svg" xmlns:xlink="http://www.w3.org/1999/xlink" width="32px" height="32px" viewBox="0 0 32 32" version="1.1">
<defs>
<linearGradient id="linear0" gradientUnits="userSpaceOnUse" x1="254" y1="233.5" x2="254" y2="254.666672" gradientTransform="matrix(0.0744119,0,0,0.062506,-2.630336,13.438785)">
<stop offset="0" style="stop-color:rgb(0%,0%,0%);stop-opacity:0.27451;"/>
<stop offset="1" style="stop-color:rgb(0%,0%,0%);stop-opacity:0;"/>
</linearGradient>
<radialGradient id="radial0" gradientUnits="userSpaceOnUse" cx="450.908936" cy="189.579361" fx="450.908936" fy="189.579361" r="21.166656" gradientTransform="matrix(0.00000017417,-0.0781325,-0.140638,-0.000000101539,50.476849,63.595333)">
<stop offset="0" style="stop-color:rgb(0%,0%,0%);stop-opacity:0.313726;"/>
<stop offset="0.222222" style="stop-color:rgb(0%,0%,0%);stop-opacity:0.27451;"/>
<stop offset="1" style="stop-color:rgb(0%,0%,0%);stop-opacity:0;"/>
</radialGradient>
<radialGradient id="radial1" gradientUnits="userSpaceOnUse" cx="450.908936" cy="189.579361" fx="450.908936" fy="189.579361" r="21.166656" gradientTransform="matrix(-0.00000017417,0.0781325,0.140638,0.000000101539,-18.723815,-7.527479)">
<stop offset="0" style="stop-color:rgb(0%,0%,0%);stop-opacity:0.313726;"/>
<stop offset="0.222222" style="stop-color:rgb(0%,0%,0%);stop-opacity:0.27451;"/>
<stop offset="1" style="stop-color:rgb(0%,0%,0%);stop-opacity:0;"/>
</radialGradient>
<radialGradient id="radial2" gradientUnits="userSpaceOnUse" cx="450.908936" cy="189.579361" fx="450.908936" fy="189.579361" r="21.166656" gradientTransform="matrix(-0.00000017417,-0.0781325,0.140638,-0.000000101539,-18.723815,63.595333)">
<stop offset="0" style="stop-color:rgb(0%,0%,0%);stop-opacity:0.313726;"/>
<stop offset="0.222222" style="stop-color:rgb(0%,0%,0%);stop-opacity:0.27451;"/>
<stop offset="1" style="stop-color:rgb(0%,0%,0%);stop-opacity:0;"/>
</radialGradient>
<radialGradient id="radial3" gradientUnits="userSpaceOnUse" cx="450.908936" cy="189.579361" fx="450.908936" fy="189.579361" r="21.166656" gradientTransform="matrix(0.00000017417,0.0781325,-0.140638,0.000000101539,50.476847,-7.527479)">
<stop offset="0" style="stop-color:rgb(0%,0%,0%);stop-opacity:0.313726;"/>
<stop offset="0.222222" style="stop-color:rgb(0%,0%,0%);stop-opacity:0.27451;"/>
<stop offset="1" style="stop-color:rgb(0%,0%,0%);stop-opacity:0;"/>
</radialGradient>
<linearGradient id="linear1" gradientUnits="userSpaceOnUse" x1="960" y1="1695.118164" x2="960" y2="175.118118" gradientTransform="matrix(0.016538,0,0,0.016538,0,0)">
<stop offset="0" style="stop-color:rgb(49.411765%,34.117648%,76.078433%);stop-opacity:1;"/>
<stop offset="1" style="stop-color:rgb(58.431375%,45.882353%,80.392158%);stop-opacity:1;"/>
</linearGradient>
<linearGradient id="linear2" gradientUnits="userSpaceOnUse" x1="960" y1="1615.118164" x2="960" y2="255.118118" gradientTransform="matrix(0.016538,0,0,0.016538,0,0)">
<stop offset="0" style="stop-color:rgb(87.843138%,87.843138%,87.843138%);stop-opacity:1;"/>
<stop offset="1" style="stop-color:rgb(93.333334%,93.333334%,93.333334%);stop-opacity:1;"/>
</linearGradient>
<linearGradient id="linear3" gradientUnits="userSpaceOnUse" x1="243.416672" y1="127.666656" x2="243.416672" y2="-94.583321" gradientTransform="matrix(0.062506,0,0,0.062506,0.351467,13.769558)">
<stop offset="0" style="stop-color:rgb(49.411765%,34.117648%,76.078433%);stop-opacity:1;"/>
<stop offset="1" style="stop-color:rgb(58.431375%,45.882353%,80.392158%);stop-opacity:1;"/>
</linearGradient>
</defs>
<g id="surface1">
<path style=" stroke:none;fill-rule:nonzero;fill:url(#linear0);" d="M 7.609375 28.035156 L 24.144531 28.035156 L 24.144531 29.355469 L 7.609375 29.355469 Z M 7.609375 28.035156 "/>
<path style=" stroke:none;fill-rule:nonzero;fill:url(#radial0);" d="M 24.144531 28.035156 L 26.792969 28.035156 L 26.792969 26.710938 L 24.144531 26.710938 Z M 24.144531 28.035156 "/>
<path style=" stroke:none;fill-rule:nonzero;fill:url(#radial1);" d="M 7.609375 28.035156 L 4.960938 28.035156 L 4.960938 29.355469 L 7.609375 29.355469 Z M 7.609375 28.035156 "/>
<path style=" stroke:none;fill-rule:nonzero;fill:url(#radial2);" d="M 7.609375 28.035156 L 4.960938 28.035156 L 4.960938 26.710938 L 7.609375 26.710938 Z M 7.609375 28.035156 "/>
<path style=" stroke:none;fill-rule:nonzero;fill:url(#radial3);" d="M 24.144531 28.035156 L 26.792969 28.035156 L 26.792969 29.355469 L 24.144531 29.355469 Z M 24.144531 28.035156 "/>
<path style=" stroke:none;fill-rule:nonzero;fill:url(#linear1);" d="M 6.613281 2.894531 C 5.882812 2.894531 5.292969 3.484375 5.292969 4.21875 L 5.292969 26.710938 C 5.292969 27.445312 5.882812 28.035156 6.613281 28.035156 L 25.136719 28.035156 C 25.871094 28.035156 26.460938 27.445312 26.460938 26.710938 L 26.460938 11.65625 L 17.699219 2.894531 Z M 20.507812 2.894531 L 26.460938 8.851562 L 26.460938 4.21875 C 26.460938 3.484375 25.871094 2.894531 25.136719 2.894531 Z M 20.507812 2.894531 "/>
<path style=" stroke:none;fill-rule:nonzero;fill:url(#linear2);" d="M 7.277344 4.21875 C 6.910156 4.21875 6.613281 4.515625 6.613281 4.878906 L 6.613281 26.050781 C 6.613281 26.414062 6.910156 26.710938 7.277344 26.710938 L 24.476562 26.710938 C 24.84375 26.710938 25.136719 26.414062 25.136719 26.050781 L 25.136719 12.15625 L 17.199219 4.21875 Z M 7.277344 4.21875 "/>
<path style=" stroke:none;fill-rule:nonzero;fill:rgb(100%,100%,100%);fill-opacity:0.392157;" d="M 6.613281 2.894531 C 5.882812 2.894531 5.292969 3.484375 5.292969 4.21875 L 5.292969 4.550781 C 5.292969 3.816406 5.882812 3.226562 6.613281 3.226562 L 17.699219 3.226562 L 26.460938 11.988281 L 26.460938 11.65625 L 17.699219 2.894531 Z M 20.507812 2.894531 L 20.839844 3.226562 L 25.136719 3.226562 C 25.871094 3.226562 26.460938 3.816406 26.460938 4.550781 L 26.460938 4.21875 C 26.460938 3.484375 25.871094 2.894531 25.136719 2.894531 Z M 20.507812 2.894531 "/>
<path style=" stroke:none;fill-rule:nonzero;fill:rgb(0%,0%,0%);fill-opacity:0.235294;" d="M 7.277344 4.21875 C 6.910156 4.21875 6.613281 4.515625 6.613281 4.878906 L 6.613281 5.375 C 6.613281 5.011719 6.910156 4.714844 7.277344 4.714844 L 17.199219 4.714844 L 25.136719 12.652344 L 25.136719 12.15625 L 17.199219 4.21875 Z M 7.277344 4.21875 "/>
<path style=" stroke:none;fill-rule:nonzero;fill:rgb(100%,100%,100%);fill-opacity:0.392157;" d="M 6.613281 26.074219 L 6.613281 26.386719 C 6.613281 26.753906 6.910156 27.046875 7.277344 27.046875 L 24.476562 27.046875 C 24.84375 27.046875 25.136719 26.753906 25.136719 26.386719 L 25.136719 26.074219 C 25.136719 26.441406 24.84375 26.734375 24.476562 26.734375 L 7.277344 26.734375 C 6.910156 26.734375 6.613281 26.441406 6.613281 26.074219 Z M 6.613281 26.074219 "/>
<path style="fill:none;stroke-width:11.338583;stroke-linecap:round;stroke-linejoin:round;stroke:rgb(12.941177%,12.941177%,12.941177%);stroke-opacity:1;stroke-miterlimit:4;" d="M 440.036742 255.093763 C 417.834137 255.093763 399.883094 273.044806 399.883094 295.011213 L 399.883094 1575.203989 C 399.883094 1597.170396 417.834137 1615.121439 440.036742 1615.121439 L 1480.016224 1615.121439 C 1502.218829 1615.121439 1519.933674 1597.170396 1519.933674 1575.203989 L 1519.933674 735.047955 L 1039.979482 255.093763 Z M 440.036742 255.093763 " transform="matrix(0.016538,0,0,0.016538,0,0)"/>
<path style=" stroke:none;fill-rule:nonzero;fill:rgb(0%,0%,0%);fill-opacity:0.235294;" d="M 20.507812 2.894531 L 26.460938 8.851562 L 26.460938 8.527344 L 20.828125 2.894531 Z M 5.292969 26.386719 L 5.292969 26.710938 C 5.292969 27.445312 5.882812 28.035156 6.613281 28.035156 L 25.136719 28.035156 C 25.871094 28.035156 26.460938 27.445312 26.460938 26.710938 L 26.460938 26.386719 C 26.460938 27.121094 25.871094 27.710938 25.136719 27.710938 L 6.613281 27.710938 C 5.882812 27.710938 5.292969 27.121094 5.292969 26.386719 Z M 5.292969 26.386719 "/>
<path style="fill:none;stroke-width:11.338583;stroke-linecap:round;stroke-linejoin:round;stroke:rgb(12.941177%,12.941177%,12.941177%);stroke-opacity:1;stroke-miterlimit:4;" d="M 399.883094 175.022665 C 355.714081 175.022665 320.048194 210.688553 320.048194 255.093763 L 320.048194 1615.121439 C 320.048194 1659.52665 355.714081 1695.192537 399.883094 1695.192537 L 1519.933674 1695.192537 C 1564.338884 1695.192537 1600.004772 1659.52665 1600.004772 1615.121439 L 1600.004772 704.81462 L 1070.212817 175.022665 Z M 1240.039128 175.022665 L 1600.004772 535.224507 L 1600.004772 255.093763 C 1600.004772 210.688553 1564.338884 175.022665 1519.933674 175.022665 Z M 1240.039128 175.022665 " transform="matrix(0.016538,0,0,0.016538,0,0)"/>
<path style=" stroke:none;fill-rule:nonzero;fill:url(#linear3);" d="M 10.9375 9.84375 C 10.570312 9.84375 10.273438 10.136719 10.273438 10.503906 C 10.273438 10.871094 10.570312 11.164062 10.9375 11.164062 L 20.859375 11.164062 C 21.226562 11.164062 21.519531 10.871094 21.519531 10.503906 C 21.519531 10.136719 21.226562 9.84375 20.859375 9.84375 Z M 10.9375 13.148438 C 10.570312 13.148438 10.273438 13.445312 10.273438 13.8125 C 10.273438 14.175781 10.570312 14.472656 10.9375 14.472656 L 20.859375 14.472656 C 21.226562 14.472656 21.519531 14.175781 21.519531 13.8125 C 21.519531 13.445312 21.226562 13.148438 20.859375 13.148438 Z M 10.9375 16.457031 C 10.570312 16.457031 10.273438 16.738281 10.273438 17.089844 L 10.273438 17.148438 C 10.273438 17.5 10.570312 17.78125 10.9375 17.78125 L 20.859375 17.78125 C 21.226562 17.78125 21.519531 17.5 21.519531 17.148438 L 21.519531 17.089844 C 21.519531 16.738281 21.226562 16.457031 20.859375 16.457031 Z M 10.9375 19.765625 C 10.570312 19.765625 10.273438 20.058594 10.273438 20.425781 C 10.273438 20.792969 10.570312 21.089844 10.9375 21.089844 L 20.859375 21.089844 C 21.226562 21.089844 21.519531 20.792969 21.519531 20.425781 C 21.519531 20.058594 21.226562 19.765625 20.859375 19.765625 Z M 10.9375 19.765625 "/>
<path style=" stroke:none;fill-rule:nonzero;fill:rgb(100%,100%,100%);fill-opacity:0.392157;" d="M 10.9375 9.84375 C 10.570312 9.84375 10.273438 10.136719 10.273438 10.503906 C 10.273438 10.5625 10.28125 10.617188 10.296875 10.667969 C 10.367188 10.382812 10.625 10.171875 10.9375 10.171875 L 20.859375 10.171875 C 21.167969 10.171875 21.425781 10.382812 21.5 10.667969 C 21.511719 10.617188 21.519531 10.5625 21.519531 10.503906 C 21.519531 10.136719 21.226562 9.84375 20.859375 9.84375 Z M 10.9375 13.148438 C 10.570312 13.148438 10.273438 13.445312 10.273438 13.8125 C 10.273438 13.867188 10.28125 13.921875 10.296875 13.976562 C 10.367188 13.691406 10.625 13.480469 10.9375 13.480469 L 20.859375 13.480469 C 21.167969 13.480469 21.425781 13.691406 21.5 13.976562 C 21.511719 13.921875 21.519531 13.867188 21.519531 13.8125 C 21.519531 13.445312 21.226562 13.148438 20.859375 13.148438 Z M 10.9375 16.457031 C 10.570312 16.457031 10.273438 16.738281 10.273438 17.089844 L 10.273438 17.148438 C 10.273438 17.195312 10.28125 17.242188 10.289062 17.285156 C 10.355469 17 10.617188 16.789062 10.9375 16.789062 L 20.859375 16.789062 C 21.175781 16.789062 21.441406 17 21.503906 17.285156 C 21.515625 17.242188 21.519531 17.195312 21.519531 17.148438 L 21.519531 17.089844 C 21.519531 16.738281 21.226562 16.457031 20.859375 16.457031 Z M 10.9375 19.765625 C 10.570312 19.765625 10.273438 20.058594 10.273438 20.425781 C 10.273438 20.484375 10.28125 20.539062 10.296875 20.59375 C 10.367188 20.304688 10.625 20.09375 10.9375 20.09375 L 20.859375 20.09375 C 21.167969 20.09375 21.425781 20.304688 21.5 20.59375 C 21.511719 20.539062 21.519531 20.484375 21.519531 20.425781 C 21.519531 20.058594 21.226562 19.765625 20.859375 19.765625 Z M 10.9375 19.765625 "/>
<path style=" stroke:none;fill-rule:nonzero;fill:rgb(0%,0%,0%);fill-opacity:0.235294;" d="M 10.320312 10.835938 C 10.292969 10.910156 10.273438 10.996094 10.273438 11.082031 C 10.273438 11.449219 10.570312 11.742188 10.9375 11.742188 L 20.859375 11.742188 C 21.226562 11.742188 21.519531 11.449219 21.519531 11.082031 C 21.519531 10.996094 21.503906 10.910156 21.472656 10.835938 C 21.375 11.078125 21.136719 11.246094 20.859375 11.246094 L 10.9375 11.246094 C 10.65625 11.246094 10.421875 11.078125 10.320312 10.835938 Z M 10.320312 14.140625 C 10.292969 14.21875 10.273438 14.300781 10.273438 14.390625 C 10.273438 14.757812 10.570312 15.050781 10.9375 15.050781 L 20.859375 15.050781 C 21.226562 15.050781 21.519531 14.757812 21.519531 14.390625 C 21.519531 14.300781 21.503906 14.21875 21.472656 14.140625 C 21.375 14.386719 21.136719 14.554688 20.859375 14.554688 L 10.9375 14.554688 C 10.65625 14.554688 10.421875 14.386719 10.320312 14.140625 Z M 10.316406 17.449219 C 10.289062 17.515625 10.273438 17.589844 10.273438 17.667969 L 10.273438 17.726562 C 10.273438 18.078125 10.570312 18.359375 10.9375 18.359375 L 20.859375 18.359375 C 21.226562 18.359375 21.519531 18.078125 21.519531 17.726562 L 21.519531 17.667969 C 21.519531 17.589844 21.507812 17.515625 21.480469 17.449219 C 21.386719 17.691406 21.144531 17.863281 20.859375 17.863281 L 10.9375 17.863281 C 10.648438 17.863281 10.40625 17.691406 10.316406 17.449219 Z M 10.320312 20.757812 C 10.292969 20.832031 10.273438 20.917969 10.273438 21.003906 C 10.273438 21.371094 10.570312 21.667969 10.9375 21.667969 L 20.859375 21.667969 C 21.226562 21.667969 21.519531 21.371094 21.519531 21.003906 C 21.519531 20.917969 21.503906 20.832031 21.472656 20.757812 C 21.375 21 21.136719 21.171875 20.859375 21.171875 L 10.9375 21.171875 C 10.65625 21.171875 10.421875 21 10.320312 20.757812 Z M 10.320312 20.757812 "/>
<path style="fill:none;stroke-width:3;stroke-linecap:round;stroke-linejoin:round;stroke:rgb(12.941177%,12.941177%,12.941177%);stroke-opacity:1;stroke-miterlimit:4;" d="M 174.98329 -57.515039 C 169.108851 -57.515039 164.359304 -52.827987 164.359304 -46.953548 C 164.359304 -41.079109 169.108851 -36.392056 174.98329 -36.392056 L 333.718132 -36.392056 C 339.592571 -36.392056 344.279623 -41.079109 344.279623 -46.953548 C 344.279623 -52.827987 339.592571 -57.515039 333.718132 -57.515039 Z M 174.98329 -4.645088 C 169.108851 -4.645088 164.359304 0.104459 164.359304 5.978898 C 164.359304 11.790843 169.108851 16.540389 174.98329 16.540389 L 333.718132 16.540389 C 339.592571 16.540389 344.279623 11.790843 344.279623 5.978898 C 344.279623 0.104459 339.592571 -4.645088 333.718132 -4.645088 Z M 174.98329 48.287357 C 169.108851 48.287357 164.359304 52.786928 164.359304 58.411391 L 164.359304 59.348801 C 164.359304 64.973264 169.108851 69.472834 174.98329 69.472834 L 333.718132 69.472834 C 339.592571 69.472834 344.279623 64.973264 344.279623 59.348801 L 344.279623 58.411391 C 344.279623 52.786928 339.592571 48.287357 333.718132 48.287357 Z M 174.98329 101.219803 C 169.108851 101.219803 164.359304 105.906855 164.359304 111.781294 C 164.359304 117.655733 169.108851 122.405279 174.98329 122.405279 L 333.718132 122.405279 C 339.592571 122.405279 344.279623 117.655733 344.279623 111.781294 C 344.279623 105.906855 339.592571 101.219803 333.718132 101.219803 Z M 174.98329 101.219803 " transform="matrix(0.062506,0,0,0.062506,0,13.438783)"/>
</g>
</svg>
